picto/arrow-straight-ahead-pointing-up-blue-framed.svg

<svg class="color-immutable" width="30" height="30" viewBox="0 0 30 30" fill="none" xmlns="http://www.w3.org/2000/svg"><g clip-path="url(#a)"><path d="M30 0H0v30h30V0Z" fill="#2D327D"/><path d="M13.5 5.25 6 12.75v3.75l6-6v14.25h3V10.5l6 6v-3.75l-7.5-7.5Z" fill="#fff"/></g><defs><clipPath id="a"><path fill="#fff" d="M0 0h30v30H0z"/></clipPath></defs></svg>

<svg class="color-immutable" width="30" height="30" viewBox="0 0 30 30" fill="none" xmlns="http://www.w3.org/2000/svg"><path d="M30 0H0V30H30V0Z" fill="#2D327D"/><path d="M13.5 5.25L6 12.75V16.5L12.0007 10.5L12 24.75H15V10.5L21 16.5V12.75L13.5 5.25Z" fill="white"/></svg>
